src/lib/packages/icons/src/assets/filled/money-bill.svg

<svg xmlns="http://www.w3.org/2000/svg" width="24" height="24" fill="none"><path fill="currentColor" d="M18 5H6C4 5 3 6 3 8v8c0 2 1 3 3 3h12c2 0 3-1 3-3V8c0-2-1-3-3-3ZM6 13c-.55 0-1-.45-1-1s.45-1 1-1 1 .45 1 1-.45 1-1 1Zm6 2c-1.66 0-3-1.34-3-3s1.34-3 3-3 3 1.34 3 3-1.34 3-3 3Zm6-2c-.55 0-1-.45-1-1s.45-1 1-1 1 .45 1 1-.45 1-1 1Z"/></svg>

<svg width="24" height="24" viewBox="0 0 24 24" fill="none" xmlns="http://www.w3.org/2000/svg">
<path d="M18 5H6C4 5 3 6 3 8V16C3 18 4 19 6 19H18C20 19 21 18 21 16V8C21 6 20 5 18 5ZM6 13C5.45 13 5 12.55 5 12C5 11.45 5.45 11 6 11C6.55 11 7 11.45 7 12C7 12.55 6.55 13 6 13ZM12 15C10.34 15 9 13.66 9 12C9 10.34 10.34 9 12 9C13.66 9 15 10.34 15 12C15 13.66 13.66 15 12 15ZM18 13C17.45 13 17 12.55 17 12C17 11.45 17.45 11 18 11C18.55 11 19 11.45 19 12C19 12.55 18.55 13 18 13Z" fill="currentColor"/>
</svg>
